; G-Code generated by Simplify3D(R) Version 3.1.1
; Jun 10, 2017 at 2:06:42 PM
; Settings Summary
;   processName,Process1
;   applyToModels,FrameA,FrameB
;   profileName,abs (modified)
;   profileVersion,2017-06-10 06:35:00
;   baseProfile,Prusa Research Original Prusa i3 MK2 (modified)
;   printMaterial,ABS
;   printQuality,Fast
;   printExtruders,
;   extruderName,Primary Extruder
;   extruderToolheadNumber,0
;   extruderDiameter,0.4
;   extruderAutoWidth,1
;   extruderWidth,0.48
;   extrusionMultiplier,1
;   extruderUseRetract,1
;   extruderRetractionDistance,1.5
;   extruderExtraRestartDistance,0
;   extruderRetractionZLift,0
;   extruderRetractionSpeed,1800
;   extruderUseCoasting,1
;   extruderCoastingDistance,0.2
;   extruderUseWipe,1
;   extruderWipeDistance,2
;   primaryExtruder,0
;   layerHeight,0.3
;   topSolidLayers,3
;   bottomSolidLayers,3
;   perimeterOutlines,2
;   printPerimetersInsideOut,1
;   startPointOption,2
;   startPointOriginX,0
;   startPointOriginY,0
;   startPointOriginZ,300
;   sequentialIslands,0
;   spiralVaseMode,0
;   firstLayerHeightPercentage,150
;   firstLayerWidthPercentage,100
;   firstLayerUnderspeed,0.5
;   useRaft,0
;   raftExtruder,0
;   raftLayers,3
;   raftOffset,3
;   raftSeparationDistance,0.14
;   raftInfill,85
;   disableRaftBaseLayers,0
;   useSkirt,1
;   skirtExtruder,0
;   skirtLayers,1
;   skirtOutlines,2
;   skirtOffset,2
;   usePrimePillar,0
;   primePillarExtruder,999
;   primePillarWidth,12
;   primePillarLocation,7
;   primePillarSpeedMultiplier,1
;   useOozeShield,0
;   oozeShieldExtruder,999
;   oozeShieldOffset,2
;   oozeShieldOutlines,1
;   oozeShieldSidewallShape,1
;   oozeShieldSidewallAngle,30
;   oozeShieldSpeedMultiplier,1
;   infillExtruder,0
;   internalInfillPattern,Fast Honeycomb
;   externalInfillPattern,Rectilinear
;   infillPercentage,15
;   outlineOverlapPercentage,50
;   infillExtrusionWidthPercentage,100
;   minInfillLength,5
;   infillLayerInterval,1
;   infillAngles,0
;   overlapInfillAngles,0
;   generateSupport,0
;   supportExtruder,0
;   supportInfillPercentage,25
;   supportExtraInflation,0
;   denseSupportLayers,0
;   denseSupportInfillPercentage,70
;   supportLayerInterval,1
;   supportHorizontalPartOffset,0.3
;   supportUpperSeparationLayers,1
;   supportLowerSeparationLayers,1
;   supportType,0
;   supportGridSpacing,4
;   maxOverhangAngle,45
;   supportAngles,0
;   temperatureName,Primary Extruder,Heated Bed
;   temperatureNumber,0,0
;   temperatureSetpointCount,1,1
;   temperatureSetpointLayers,1,1
;   temperatureSetpointTemperatures,245,110
;   temperatureStabilizeAtStartup,1,1
;   temperatureHeatedBed,0,1
;   temperatureRelayBetweenLayers,0,0
;   temperatureRelayBetweenLoops,0,0
;   fanLayers,1
;   fanSpeeds,0
;   blipFanToFullPower,0
;   adjustSpeedForCooling,1
;   minSpeedLayerTime,15
;   minCoolingSpeedSlowdown,20
;   increaseFanForCooling,0
;   minFanLayerTime,45
;   maxCoolingFanSpeed,100
;   increaseFanForBridging,0
;   bridgingFanSpeed,100
;   use5D,1
;   relativeEdistances,0
;   allowEaxisZeroing,1
;   independentExtruderAxes,0
;   includeM10123,0
;   stickySupport,1
;   applyToolheadOffsets,0
;   gcodeXoffset,0
;   gcodeYoffset,0
;   gcodeZoffset,0
;   overrideMachineDefinition,1
;   machineTypeOverride,0
;   strokeXoverride,250
;   strokeYoverride,210
;   strokeZoverride,200
;   originOffsetXoverride,0
;   originOffsetYoverride,0
;   originOffsetZoverride,0
;   homeXdirOverride,-1
;   homeYdirOverride,-1
;   homeZdirOverride,-1
;   flipXoverride,1
;   flipYoverride,-1
;   flipZoverride,1
;   toolheadOffsets,0,0|0,0|0,0|0,0|0,0|0,0
;   overrideFirmwareConfiguration,1
;   firmwareTypeOverride,RepRap (Marlin/Repetier/Sprinter)
;   GPXconfigOverride,r2
;   baudRateOverride,250000
;   overridePrinterModels,1
;   printerModelsOverride
;   startingGcode,M115 U3.0.7 ; use the latest firmware version,G28 W ; home all axes without mesh bed leveling,G80 ; run mesh bed leveling routine,G1 Y-3.0 F1000.0 ; prepare to prime,G92 E0 ; reset extrusion distance,G1 X60.0 E9.0  F1000.0 ; priming,G1 X100.0 E12.5  F1000.0 ; priming
;   layerChangeGcode,
;   retractionGcode,
;   toolChangeGcode,
;   endingGcode,M106 S0 ; turn off cooling fan,M104 S0 ; turn off extruder,M140 S0 ; turn off bed,G1 X0 Y200 ; part removal,M84 ; disable motors
;   exportFileFormat,gcode
;   celebration,0
;   celebrationSong,Random Song
;   postProcessing,
;   defaultSpeed,2600
;   outlineUnderspeed,0.8
;   solidInfillUnderspeed,0.8
;   supportUnderspeed,0.8
;   rapidXYspeed,4800
;   rapidZspeed,1000
;   minBridgingArea,50
;   bridgingExtraInflation,0
;   bridgingExtrusionMultiplier,1
;   bridgingSpeedMultiplier,1
;   filamentDiameter,1.75
;   filamentPricePerKg,46
;   filamentDensity,1.25
;   useMinPrintHeight,0
;   minPrintHeight,0
;   useMaxPrintHeight,0
;   maxPrintHeight,0
;   useDiaphragm,0
;   diaphragmLayerInterval,20
;   robustSlicing,1
;   mergeAllIntoSolid,0
;   onlyRetractWhenCrossingOutline,1
;   retractBetweenLayers,1
;   useRetractionMinTravel,0
;   retractionMinTravel,3
;   retractWhileWiping,1
;   onlyWipeOutlines,1
;   avoidCrossingOutline,0
;   maxMovementDetourFactor,3
;   toolChangeRetractionDistance,12
;   toolChangeExtraRestartDistance,-0.5
;   toolChangeRetractionSpeed,600
;   allowThinWallGapFill,1
;   thinWallAllowedOverlapPercentage,25
;   horizontalSizeCompensation,0
G90
M82
M106 S0
M140 S110
M190 S110
M104 S245 T0
M109 S245 T0
M115 U3.0.7 ; use the latest firmware version
G28 W ; home all axes without mesh bed leveling
G80 ; run mesh bed leveling routine
G1 Y-3.0 F1000.0 ; prepare to prime
G92 E0 ; reset extrusion distance
G1 X60.0 E9.0  F1000.0 ; priming
G1 X100.0 E12.5  F1000.0 ; priming
G92 E0
G1 E-1.5000 F1800
G1 Z0.450 F1000
; layer 1, Z = 0.45
T0
; tool H0.450 W0.480
; skirt
G1 X29.350 Y22.613 F4800
G1 E0.0000 F540
G92 E0
G1 X29.715 Y22.367 E0.0395 F1300
G1 X39.613 Y22.367 E0.9284
G1 X39.645 Y22.369 E0.9313
G1 X39.855 Y22.388 E0.9501
G1 X39.887 Y22.392 E0.9530
G1 X146.831 Y41.648 E10.7113
G1 X146.843 Y41.651 E10.7124
G1 X146.924 Y41.668 E10.7198
G1 X146.936 Y41.671 E10.7210
G1 X148.742 Y42.128 E10.8882
G1 X148.766 Y42.135 E10.8905
G1 X148.922 Y42.186 E10.9052
G1 X148.945 Y42.195 E10.9075
G1 X150.708 Y42.914 E11.0785
G1 X150.731 Y42.924 E11.0807
G1 X150.879 Y42.996 E11.0955
G1 X150.901 Y43.008 E11.0977
G1 X152.547 Y43.964 E11.2687
G1 X152.568 Y43.978 E11.2709
G1 X152.704 Y44.070 E11.2857
G1 X152.724 Y44.085 E11.2880
G1 X154.222 Y45.260 E11.4589
G1 X154.241 Y45.277 E11.4612
G1 X154.363 Y45.387 E11.4759
G1 X154.381 Y45.404 E11.4782
G1 X155.701 Y46.776 E11.6491
G1 X155.717 Y46.795 E11.6514
G1 X155.823 Y46.921 E11.6662
G1 X155.838 Y46.941 E11.6684
G1 X156.955 Y48.483 E11.8394
G1 X156.969 Y48.504 E11.8416
G1 X157.056 Y48.643 E11.8564
G1 X157.068 Y48.665 E11.8586
G1 X157.960 Y50.347 E12.0296
G1 X157.971 Y50.370 E12.0319
G1 X158.038 Y50.520 E12.0466
G1 X158.047 Y50.543 E12.0489
G1 X158.696 Y52.333 E12.2198
G1 X158.704 Y52.357 E12.2221
G1 X158.749 Y52.515 E12.2369
G1 X158.755 Y52.539 E12.2391
G1 X159.150 Y54.401 E12.4101
G1 X159.155 Y54.426 E12.4123
G1 X159.177 Y54.589 E12.4271
G1 X159.180 Y54.614 E12.4293
G1 X159.310 Y56.472 E12.5966
G1 X159.310 Y56.485 E12.5977
G1 X159.313 Y56.567 E12.6051
G1 X159.313 Y56.579 E12.6062
G1 X159.313 Y153.321 E21.2939
G1 X159.313 Y153.334 E21.2950
G1 X159.310 Y153.416 E21.3024
G1 X159.310 Y153.428 E21.3035
G1 X159.180 Y155.285 E21.4707
G1 X159.178 Y155.310 E21.4729
G1 X159.155 Y155.473 E21.4877
G1 X159.150 Y155.498 E21.4899
G1 X158.756 Y157.359 E21.6608
G1 X158.750 Y157.383 E21.6630
G1 X158.705 Y157.541 E21.6778
G1 X158.697 Y157.565 E21.6801
G1 X158.049 Y159.354 E21.8509
G1 X158.039 Y159.377 E21.8532
G1 X157.973 Y159.527 E21.8679
G1 X157.962 Y159.549 E21.8702
G1 X157.071 Y161.231 E22.0410
G1 X157.059 Y161.252 E22.0433
G1 X156.972 Y161.392 E22.0580
G1 X156.958 Y161.413 E22.0603
G1 X155.843 Y162.954 E22.2311
G1 X155.827 Y162.974 E22.2334
G1 X155.722 Y163.100 E22.2481
G1 X155.705 Y163.119 E22.2504
G1 X154.387 Y164.491 E22.4212
G1 X154.369 Y164.508 E22.4235
G1 X154.247 Y164.618 E22.4382
G1 X154.228 Y164.634 E22.4405
G1 X152.732 Y165.810 E22.6113
G1 X152.712 Y165.825 E22.6136
G1 X152.576 Y165.917 E22.6283
G1 X152.555 Y165.931 E22.6306
G1 X150.911 Y166.887 E22.8014
G1 X150.889 Y166.899 E22.8037
G1 X150.741 Y166.972 E22.8184
G1 X150.718 Y166.982 E22.8207
G1 X148.957 Y167.702 E22.9915
G1 X148.933 Y167.710 E22.9938
G1 X148.777 Y167.762 E23.0085
G1 X148.753 Y167.769 E23.0108
G1 X146.949 Y168.227 E23.1780
G1 X146.937 Y168.230 E23.1791
G1 X146.857 Y168.247 E23.1865
G1 X146.844 Y168.250 E23.1876
G1 X39.889 Y187.608 E32.9485
G1 X39.857 Y187.612 E32.9514
G1 X39.646 Y187.631 E32.9704
G1 X39.614 Y187.632 E32.9733
G1 X29.737 Y187.632 E33.8603
G1 X29.372 Y187.387 E33.8997
G1 X28.193 Y184.488 E34.1808
G1 X28.282 Y184.058 E34.2203
G1 X32.880 Y179.573 E34.7971
G1 X36.160 Y176.072 E35.2279
G1 X39.279 Y172.428 E35.6586
G1 X42.230 Y168.646 E36.0894
G1 X45.008 Y164.735 E36.5202
G1 X47.608 Y160.704 E36.9510
G1 X50.023 Y156.559 E37.3818
G1 X52.249 Y152.310 E37.8126
G1 X54.282 Y147.965 E38.2433
G1 X56.117 Y143.533 E38.6741
G1 X58.192 Y137.803 E39.2213
G1 X58.456 Y137.563 E39.2534
G1 X60.849 Y136.949 E39.4752
G1 X61.196 Y137.033 E39.5073
G1 X62.900 Y138.530 E39.7110
G1 X63.775 Y137.015 E39.8682
G1 X60.496 Y135.905 E40.1790
G1 X60.289 Y135.732 E40.2033
G1 X59.409 Y134.129 E40.3675
G1 X59.374 Y133.861 E40.3918
G1 X60.834 Y127.916 E40.9415
G1 X61.818 Y122.870 E41.4032
G1 X62.558 Y117.782 E41.8649
G1 X63.051 Y112.664 E42.3266
G1 X63.296 Y107.529 E42.7883
G1 X63.294 Y102.387 E43.2500
G1 X63.043 Y97.252 E43.7117
G1 X62.545 Y92.135 E44.1734
G1 X61.801 Y87.048 E44.6351
G1 X60.812 Y82.003 E45.0968
G1 X59.346 Y76.059 E45.6466
G1 X59.381 Y75.790 E45.6709
G1 X60.260 Y74.186 E45.8352
G1 X60.467 Y74.012 E45.8595
G1 X63.744 Y72.904 E46.1701
G1 X62.869 Y71.388 E46.3273
G1 X61.163 Y72.888 E46.5312
G1 X60.816 Y72.971 E46.5633
G1 X58.424 Y72.358 E46.7850
G1 X58.160 Y72.119 E46.8171
G1 X56.082 Y66.398 E47.3636
G1 X54.246 Y61.974 E47.7938
G1 X52.213 Y57.637 E48.2240
G1 X49.986 Y53.395 E48.6542
G1 X47.572 Y49.258 E49.0844
G1 X44.973 Y45.233 E49.5145
G1 X42.197 Y41.330 E49.9447
G1 X39.248 Y37.555 E50.3749
G1 X36.132 Y33.916 E50.8051
G1 X32.855 Y30.422 E51.2353
G1 X28.260 Y25.943 E51.8115
G1 X28.171 Y25.513 E51.8510
G1 X29.275 Y22.798 E52.1141
G1 X29.350 Y22.613 F1300
G1 X158.725 Y24.484 F4800
G92 E0
G1 X158.808 Y24.176 E0.0287 F1300
G1 X160.212 Y22.502 E0.2248
G1 X160.501 Y22.367 E0.2535
G1 X169.220 Y22.367 E1.0364
G1 X169.512 Y22.506 E1.0656
G1 X170.918 Y24.226 E1.2650
G1 X170.996 Y24.541 E1.2941
G1 X170.456 Y27.198 E1.5377
G1 X172.206 Y27.204 E1.6948
G1 X171.679 Y24.528 E1.9397
G1 X171.758 Y24.214 E1.9687
G1 X173.163 Y22.505 E2.1674
G1 X173.455 Y22.367 E2.1964
G1 X206.411 Y22.367 E5.1560
G1 X206.704 Y22.506 E5.1851
G1 X208.109 Y24.226 E5.3845
G1 X208.187 Y24.541 E5.4136
G1 X207.625 Y27.307 E5.6671
G1 X209.375 Y27.312 E5.8243
G1 X208.827 Y24.528 E6.0791
G1 X208.906 Y24.215 E6.1081
G1 X210.311 Y22.505 E6.3068
G1 X210.603 Y22.367 E6.3358
G1 X219.810 Y22.367 E7.1627
G1 X220.099 Y22.502 E7.1913
G1 X221.503 Y24.169 E7.3870
G1 X221.586 Y24.477 E7.4156
G1 X205.309 Y118.624 E15.9957
G1 X205.307 Y118.634 E15.9966
G1 X205.295 Y118.696 E16.0023
G1 X205.293 Y118.706 E16.0032
G1 X204.972 Y120.108 E16.1324
G1 X204.967 Y120.127 E16.1341
G1 X204.932 Y120.249 E16.1455
G1 X204.926 Y120.267 E16.1472
G1 X204.446 Y121.657 E16.2793
G1 X204.439 Y121.675 E16.2810
G1 X204.392 Y121.793 E16.2924
G1 X204.384 Y121.811 E16.2942
G1 X203.757 Y123.141 E16.4262
G1 X203.749 Y123.158 E16.4279
G1 X203.689 Y123.270 E16.4393
G1 X203.679 Y123.287 E16.4411
G1 X202.913 Y124.542 E16.5731
G1 X202.903 Y124.559 E16.5749
G1 X202.831 Y124.663 E16.5863
G1 X202.820 Y124.679 E16.5880
G1 X201.924 Y125.845 E16.7201
G1 X201.912 Y125.860 E16.7218
G1 X201.829 Y125.956 E16.7332
G1 X201.816 Y125.971 E16.7349
G1 X200.800 Y127.034 E16.8670
G1 X200.787 Y127.047 E16.8687
G1 X200.694 Y127.134 E16.8801
G1 X200.680 Y127.147 E16.8819
G1 X199.556 Y128.095 E17.0139
G1 X199.540 Y128.107 E17.0156
G1 X199.439 Y128.184 E17.0270
G1 X199.423 Y128.195 E17.0288
G1 X198.204 Y129.017 E17.1608
G1 X198.188 Y129.027 E17.1626
G1 X198.079 Y129.092 E17.1740
G1 X198.062 Y129.102 E17.1757
G1 X196.762 Y129.788 E17.3077
G1 X196.744 Y129.797 E17.3095
G1 X196.629 Y129.850 E17.3209
G1 X196.611 Y129.858 E17.3226
G1 X195.245 Y130.400 E17.4547
G1 X195.226 Y130.407 E17.4564
G1 X195.106 Y130.447 E17.4678
G1 X195.088 Y130.453 E17.4695
G1 X193.671 Y130.846 E17.6016
G1 X193.652 Y130.851 E17.6033
G1 X193.528 Y130.878 E17.6147
G1 X193.509 Y130.882 E17.6165
G1 X192.058 Y131.120 E17.7485
G1 X192.039 Y131.123 E17.7502
G1 X191.913 Y131.137 E17.7616
G1 X191.893 Y131.138 E17.7634
G1 X190.425 Y131.220 E17.8954
G1 X190.406 Y131.220 E17.8972
G1 X190.279 Y131.220 E17.9086
G1 X190.259 Y131.220 E17.9103
G1 X188.791 Y131.143 E18.0424
G1 X188.772 Y131.142 E18.0441
G1 X188.646 Y131.128 E18.0555
G1 X188.626 Y131.126 E18.0572
G1 X187.175 Y130.892 E18.1893
G1 X187.156 Y130.889 E18.1910
G1 X187.032 Y130.862 E18.2024
G1 X187.013 Y130.857 E18.2041
G1 X185.595 Y130.469 E18.3362
G1 X185.576 Y130.463 E18.3379
G1 X185.456 Y130.423 E18.3493
G1 X185.437 Y130.417 E18.3511
G1 X184.069 Y129.879 E18.4831
G1 X184.051 Y129.871 E18.4849
G1 X183.936 Y129.818 E18.4963
G1 X183.918 Y129.810 E18.4980
G1 X182.615 Y129.128 E18.6300
G1 X182.599 Y129.118 E18.6318
G1 X182.489 Y129.054 E18.6432
G1 X182.473 Y129.043 E18.6449
G1 X181.251 Y128.225 E18.7770
G1 X181.235 Y128.214 E18.7787
G1 X181.134 Y128.138 E18.7901
G1 X181.119 Y128.126 E18.7918
G1 X179.991 Y127.182 E18.9239
G1 X179.977 Y127.169 E18.9256
G1 X179.884 Y127.082 E18.9370
G1 X179.870 Y127.069 E18.9388
G1 X178.851 Y126.009 E19.0708
G1 X178.838 Y125.995 E19.0725
G1 X178.755 Y125.899 E19.0839
G1 X178.743 Y125.884 E19.0857
G1 X177.843 Y124.721 E19.2177
G1 X177.832 Y124.705 E19.2195
G1 X177.759 Y124.601 E19.2309
G1 X177.749 Y124.584 E19.2326
G1 X176.979 Y123.331 E19.3647
G1 X176.969 Y123.315 E19.3664
G1 X176.909 Y123.203 E19.3778
G1 X176.900 Y123.186 E19.3795
G1 X176.269 Y121.858 E19.5116
G1 X176.262 Y121.840 E19.5133
G1 X176.213 Y121.723 E19.5247
G1 X176.206 Y121.704 E19.5265
G1 X175.722 Y120.316 E19.6585
G1 X175.716 Y120.298 E19.6602
G1 X175.681 Y120.176 E19.6716
G1 X175.676 Y120.157 E19.6734
G1 X175.350 Y118.756 E19.8026
G1 X175.348 Y118.746 E19.8034
G1 X175.335 Y118.684 E19.8091
G1 X175.334 Y118.675 E19.8100
G1 X158.760 Y24.681 E28.3811
G1 X158.725 Y24.484 F1300
G1 X159.216 Y24.506 F4800
G92 E0
G1 X159.244 Y24.403 E0.0096 F1300
G1 X160.511 Y22.892 E0.1866
G1 X160.607 Y22.847 E0.1962
G1 X169.112 Y22.847 E0.9599
G1 X169.209 Y22.894 E0.9696
G1 X170.478 Y24.446 E1.1496
G1 X170.504 Y24.551 E1.1593
G1 X169.869 Y27.677 E1.4457
G1 X172.790 Y27.685 E1.7080
G1 X172.171 Y24.541 E1.9959
G1 X172.197 Y24.436 E2.0055
G1 X173.465 Y22.893 E2.1849
G1 X173.563 Y22.847 E2.1946
G1 X206.303 Y22.847 E5.1347
G1 X206.401 Y22.894 E5.1444
G1 X207.669 Y24.446 E5.3244
G1 X207.695 Y24.551 E5.3341
G1 X207.038 Y27.785 E5.6305
G1 X209.959 Y27.794 E5.8928
G1 X209.318 Y24.541 E6.1906
G1 X209.345 Y24.436 E6.2003
G1 X210.613 Y22.893 E6.3796
G1 X210.711 Y22.847 E6.3893
G1 X219.704 Y22.847 E7.1969
G1 X219.800 Y22.892 E7.2065
G1 X221.067 Y24.397 E7.3831
G1 X221.095 Y24.500 E7.3927
G1 X204.836 Y118.540 E15.9630
G1 X204.836 Y118.543 E15.9632
G1 X204.825 Y118.599 E15.9684
G1 X204.824 Y118.602 E15.9686
G1 X204.505 Y119.995 E16.0970
G1 X204.504 Y120.001 E16.0976
G1 X204.472 Y120.111 E16.1078
G1 X204.470 Y120.117 E16.1084
G1 X203.995 Y121.495 E16.2393
G1 X203.992 Y121.501 E16.2398
G1 X203.949 Y121.606 E16.2501
G1 X203.947 Y121.612 E16.2507
G1 X203.326 Y122.931 E16.3816
G1 X203.323 Y122.936 E16.3821
G1 X203.269 Y123.037 E16.3924
G1 X203.266 Y123.043 E16.3930
G1 X202.507 Y124.287 E16.5238
G1 X202.503 Y124.292 E16.5244
G1 X202.439 Y124.386 E16.5347
G1 X202.435 Y124.392 E16.5352
G1 X201.547 Y125.547 E16.6661
G1 X201.543 Y125.552 E16.6667
G1 X201.469 Y125.639 E16.6769
G1 X201.465 Y125.644 E16.6775
G1 X200.458 Y126.698 E16.8084
G1 X200.453 Y126.702 E16.8090
